X:19
T:Tambourin
M:2/4
L:1/8
K:C
%%staves [1 3 2]
V:1
e2 !!ed/e/ | c2G2 | cdec | d/c/d/e/ dd | e2 !!ed/e/ | c2G2 | cdec | !!d4 :: efgg |
defg | !!e2f/e/d/c/ | !!d2d2 | efgg | defg | !!e2!!d2 | c2c2 :|
V:2
C2C,2 | CDED | CB,CC, | G,G,, G,/F,/E,/D,/ | C,2c,,2 | CDED | CB,CC, | G,A,B,G, :: CF, C,/D,/E,/F,/ |
G,C, B,,G,, | C,C,B,,C, | G,,2 G,/A,/B,/G,/ | CF, C,/D,/E,/F,/ | G,C, B,,G,, | C,/D,/E,/F,/ G,G,, | C,2C,,2 :|
V:3
c2c'2 | cded | cBcc' | gG g/2f/2e/2d/2 | c2c2 | cded | cBcc' | gabg :: c'f c/2d/2e/2f/2 |
gc BG | ccBc | G2 g/2a/2b/2g/2 | c'f c/2d/2e/2f/2 | gc BG | c/2d/2e/2f/2 gG | c2c2 :|
